icons/default/News.svg

<path
	d="M2.89209 5.16335C2.89209 5.04349 2.94288 4.92854 3.03328 4.84379C3.12368 4.75904 3.24629 4.71143 3.37414 4.71143H10.1229C10.2507 4.71143 10.3733 4.75904 10.4637 4.84379C10.5541 4.92854 10.6049 5.04349 10.6049 5.16335C10.6049 5.28321 10.5541 5.39815 10.4637 5.48291C10.3733 5.56766 10.2507 5.61527 10.1229 5.61527H3.37414C3.24629 5.61527 3.12368 5.56766 3.03328 5.48291C2.94288 5.39815 2.89209 5.28321 2.89209 5.16335Z"
	fill="currentColor" />
<path
	d="M8.19494 7.42285C8.06709 7.42285 7.94448 7.47046 7.85408 7.55522C7.76368 7.63997 7.71289 7.75492 7.71289 7.87477C7.71289 7.99463 7.76368 8.10958 7.85408 8.19433C7.94448 8.27908 8.06709 8.3267 8.19494 8.3267H10.1231C10.251 8.3267 10.3736 8.27908 10.464 8.19433C10.5544 8.10958 10.6052 7.99463 10.6052 7.87477C10.6052 7.75492 10.5544 7.63997 10.464 7.55522C10.3736 7.47046 10.251 7.42285 10.1231 7.42285H8.19494Z"
	fill="currentColor" />
<path
	d="M7.71289 10.5867C7.71289 10.4668 7.76368 10.3519 7.85408 10.2671C7.94448 10.1824 8.06709 10.1348 8.19494 10.1348H10.1231C10.251 10.1348 10.3736 10.1824 10.464 10.2671C10.5544 10.3519 10.6052 10.4668 10.6052 10.5867C10.6052 10.7065 10.5544 10.8215 10.464 10.9062C10.3736 10.991 10.251 11.0386 10.1231 11.0386H8.19494C8.06709 11.0386 7.94448 10.991 7.85408 10.9062C7.76368 10.8215 7.71289 10.7065 7.71289 10.5867Z"
	fill="currentColor" />
<path
	d="M3.37414 7.42285C3.24629 7.42285 3.12368 7.47046 3.03328 7.55522C2.94288 7.63997 2.89209 7.75492 2.89209 7.87477V10.5863C2.89209 10.7062 2.94288 10.8211 3.03328 10.9059C3.12368 10.9906 3.24629 11.0382 3.37414 11.0382H6.26645C6.3943 11.0382 6.51691 10.9906 6.60731 10.9059C6.69771 10.8211 6.7485 10.7062 6.7485 10.5863V7.87477C6.7485 7.75492 6.69771 7.63997 6.60731 7.55522C6.51691 7.47046 6.3943 7.42285 6.26645 7.42285H3.37414ZM3.85619 10.1344V8.3267H5.7844V10.1344H3.85619Z"
	fill="currentColor" />
<path
	d="M0 3.80769C0 3.32826 0.20315 2.86847 0.564758 2.52946C0.926367 2.19045 1.41681 2 1.92821 2H11.5692C12.0806 2 12.5711 2.19045 12.9327 2.52946C13.2943 2.86847 13.4974 3.32826 13.4974 3.80769V4.71154C14.0088 4.71154 14.4993 4.90199 14.8609 5.241C15.2225 5.58001 15.4256 6.0398 15.4256 6.51923V11.4904C15.4256 12.0897 15.1717 12.6644 14.7197 13.0882C14.2677 13.5119 13.6546 13.75 13.0154 13.75H2.41026C1.77102 13.75 1.15796 13.5119 0.705948 13.0882C0.253937 12.6644 0 12.0897 0 11.4904V3.80769ZM12.5333 3.80769C12.5333 3.56798 12.4318 3.33808 12.251 3.16858C12.0701 2.99907 11.8249 2.90385 11.5692 2.90385H1.92821C1.67251 2.90385 1.42729 2.99907 1.24648 3.16858C1.06568 3.33808 0.964103 3.56798 0.964103 3.80769V11.4904C0.964103 11.85 1.11646 12.1948 1.38767 12.4491C1.65888 12.7033 2.02671 12.8462 2.41026 12.8462H13.0154C13.3989 12.8462 13.7668 12.7033 14.038 12.4491C14.3092 12.1948 14.4615 11.85 14.4615 11.4904V6.51923C14.4615 6.27952 14.36 6.04962 14.1792 5.88012C13.9984 5.71061 13.7531 5.61538 13.4974 5.61538V11.4904C13.4974 11.6102 13.4466 11.7252 13.3562 11.8099C13.2658 11.8947 13.1432 11.9423 13.0154 11.9423C12.8875 11.9423 12.7649 11.8947 12.6745 11.8099C12.5841 11.7252 12.5333 11.6102 12.5333 11.4904V3.80769Z"
	fill="currentColor" />

<path d="M2.892 5.163c0-.12.05-.234.141-.32a.499.499 0 0 1 .341-.132h6.749c.128 0 .25.048.34.133.091.085.142.2.142.32s-.05.234-.141.319a.499.499 0 0 1-.341.132H3.374a.499.499 0 0 1-.34-.132.438.438 0 0 1-.142-.32Z" fill="currentColor"/><path d="M8.195 7.423a.499.499 0 0 0-.34.132.438.438 0 0 0-.142.32c0 .12.05.235.141.32.09.084.213.132.34.132h1.93c.127 0 .25-.048.34-.133.09-.084.141-.2.141-.32s-.05-.234-.141-.319a.499.499 0 0 0-.34-.132h-1.93Z" fill="currentColor"/><path d="M7.713 10.587c0-.12.05-.235.141-.32a.499.499 0 0 1 .34-.132h1.93c.127 0 .25.047.34.132.09.085.141.2.141.32s-.05.235-.141.32a.499.499 0 0 1-.34.132h-1.93a.499.499 0 0 1-.34-.133.438.438 0 0 1-.141-.32Z" fill="currentColor"/><path d="M3.374 7.423a.499.499 0 0 0-.34.132.438.438 0 0 0-.142.32v2.711c0 .12.05.235.141.32.09.085.213.132.341.132h2.892c.128 0 .25-.047.341-.132.09-.085.141-.2.141-.32V7.875c0-.12-.05-.235-.14-.32a.499.499 0 0 0-.342-.132H3.374Zm.482 2.711V8.327h1.928v1.807H3.856Z" fill="currentColor"/><path d="M0 3.808c0-.48.203-.94.565-1.279C.926 2.19 1.417 2 1.928 2h9.641c.512 0 1.002.19 1.364.53.361.338.564.798.564 1.278v.904c.512 0 1.002.19 1.364.529.361.339.565.799.565 1.278v4.971c0 .6-.254 1.174-.706 1.598a2.494 2.494 0 0 1-1.705.662H2.41c-.639 0-1.252-.238-1.704-.662A2.19 2.19 0 0 1 0 11.49V3.808Zm12.533 0c0-.24-.101-.47-.282-.64a.998.998 0 0 0-.682-.264H1.93c-.256 0-.502.095-.683.265-.18.17-.282.399-.282.639v7.682c0 .36.152.705.424.96.27.253.639.396 1.022.396h10.605c.384 0 .752-.143 1.023-.397.271-.254.423-.599.423-.959V6.52c0-.24-.101-.47-.282-.64a.998.998 0 0 0-.682-.265v5.875c0 .12-.05.235-.14.32a.499.499 0 0 1-.342.132.499.499 0 0 1-.34-.132.438.438 0 0 1-.142-.32V3.808Z" fill="currentColor"/>
